X: 3068
T: JUMPING GEORDIE
Q:"Reel."
R: Reel.
%R:reel
B: James Kerr "Merry Melodies" v.3 p.9 #68
Z: 2016 John Chambers <jc:trillian.mit.edu>
M: C
L: 1/8
K: G
ud |\
g2dB g2dB | g2dB cAA2 |\
g2dB g2dB | cedc (BG) G ::\
d |\
BGdG eGdG | BGdB (cA)A2 |\
BGdG eGdG | cedc (BG) G :|

%%sep 1 1 500
%%sep 1 1 500

